!!!!SEGMENT: pl-sa--143-a-iii-43--004_anonim--missa-gregoriano-canto-et-incarnatus.krn
!!!cenid: 18xx:1289
!!!COM: Anonim
!!!COM-rismID:
!!!CDT:
!!!CNT:
!!!OPR: Missa Gregoriano Canto
!!!OTL: Et incarnatus
!!!OMV: 004
!!!PDT: 1815
!!!AGN: Sacred; Mass
!!!SMS-siglum: PL-SA
!!!SMS-shelfmark: 143/A III 43
!!!SMS-shelfwork: 001-004 M
!!!SMS-variant:
!!!SMS-altvar:
!!!NIFC-rismSourceID: 1001035509
!!!NIFC-islandoraID:
!!!URL-pdf-islandora:
!!!URL-scan: https://bc.bdsandomierz.pl/dlibra/publication/1500/edition/1468/content @EN{Scan on Cyfrowa Biblioteka Diecezjalna w Sandomierzu} @PL{Skany w portalu Cyfrowa Biblioteka Diecezjalna w Sandomierzu}
!!!ONB-nifc: UWAGA: części Mszy: 1. Kyrie, 2. Et in terra, 3. Patrem,. 4. Et incarnatus, 5. Et resurrexit, 6. Sanctus, 7. Benedictus, 8. Agnus Dei
!!!AIN: 1 organ 2 soprn
!!!key: F
**kern	**kern	**kern	**text	**kern	**text
*part3	*part3	*part2	*part2	*part1	*part1
*staff4	*staff3	*staff2	*staff2	*staff1	*staff1
*I"Organo.	*	*I"Canto 2do.	*	*I"Canto	*
*I'Org.	*	*I'C. II	*	*I'C.	*
*Iorgan	*	*Isoprn	*	*Isoprn	*
*ICklav	*	*ICvox	*	*ICvox	*
*clefF4	*clefC1	*clefC1	*	*clefC1	*
*k[b-]	*k[b-]	*k[b-]	*	*k[b-]	*
*F:	*F:	*F:	*	*F:	*
*M3/2	*M3/2	*M3/2	*	*M3/2	*
*2\right	*2\right	*2\right	*	*2\right	*
=1	=1	=1	=1	=1	=1
!	!LO:TX:a:t=P:problem=metrum 3/1 zamiast 3/2	!	!	!	!
!	!LO:TX:a:t=Ada&colon;	!	!	!	!
!	!LO:TX:a:t=P:problem=metrum 3/1 zamiast 3/2	!	!	!LO:TX:a:t=P:problem=metrum - 3/1 zamiast 3/2	!
!	!LO:TX:b:t=Et in Carnatus	!LO:TX:a:t=P:problem=metrum - 3/1 zamiast 3/2	!	!	!
2F\	2cc\	2a\	Et	2cc\	Et
2F\	2cc\	2a\	in-	2cc\	in-
2F\	2a\	2f/	-car-	2a\	-Car-
=2	=2	=2	=2	=2	=2
2G\	4b-\	4g\	-na-	4b-\	-na-
.	4cc\	4a\	-tus	4cc\	-tus
4r	1dd	1b-	est	1dd	eſt
8G\L	.	.	.	.	.
8A\J	.	.	.	.	.
4B-\	.	.	.	.	.
4G\	.	.	.	.	.
=3	=3	=3	=3	=3	=3
2G\	2b-\	2g\	et	2b-\	et
2G\	2b-\	2g\	in-	2b-\	in-
2G\	2g\	2e/	-car-	2g\	car-
!	!	!LO:LB:g=original	!	!LO:LB:g=original	!
=4	=4	=4	=4	=4	=4
2F\	4a\	4f/	-na-	4a\	-na-
.	4b-\	4g/	-tus	4b-\	-tus
4r	1cc	1a	est	1cc	eſt
8A\L	.	.	.	.	.
8B-\J	.	.	.	.	.
4c\	.	.	.	.	.
4A\	.	.	.	.	.
=5	=5	=5	=5	=5	=5
4F\	4cc\	4a\	de	4cc\	de
4F\	4a\	4f\	Spi-	4a\	.
4F\	4b-\	4g\	.	4b-\	Spi-
4F\	4cc\	4a\	.	4cc\	.
4F\	4dd\	4b-\	.	4dd\	-ri-
4F\	8cc\L	8a\L	-ri	8cc\L	-tu
.	8b-\J	8g\J	tu	8b-\J	.
=6	=6	=6	=6	=6	=6
4r	2b-\	2g/	San-	2b-\	San-
4C/	.	.	.	.	.
4E/	1g	1e	-cto	1g	-cto
4G/	.	.	.	.	.
4B-/	.	.	.	.	.
4G/	.	.	.	.	.
!LO:LB:g=original	!LO:LB:g=original	!	!	!	!
=7	=7	=7	=7	=7	=7
4C/	4b-\	4g\	de	4b-\	de
4C/	4g\	4e\	.	4g\	.
4C/	4a\	4f\	Spi-	4a\	Spi-
4C/	4b-\	4g\	.	4b-\	.
4C/	4cc\	4a\	-ri-	4cc\	-ri
4C/	8b-\L	8g\L	-tu	8b-\L	tu
.	8a\J	8f\J	.	8a\J	.
=8	=8	=8	=8	=8	=8
4r	2a\	2f/	San-	2a\	San-
4F\	.	.	.	.	.
!	!LO:TX:t=P:problem=poprawiona nuta	!	!	!	!
!	!LO:TX:a:t=f.	!	!	!	!
4A\	1f	1f	-cto	1f	-cto
4c\	.	.	.	.	.
4A\	.	.	.	.	.
4F\	.	.	.	.	.
=9	=9	=9	=9	=9	=9
4F\	4ff\	4a\	ex	4ff\	ex
4F\	4cc\	4a\	.	4cc\	.
4F\	2cc\	2a\	Ma-	2cc\	-Ma-
4F\	.	.	.	.	.
4F\	2cc\	2a\	-rja	2cc\	-rja
4F\	.	.	.	.	.
=10	=10	=10	=10	=10	=10
8C/L	4cc\	4a\	Vir-	4cc\	Vir-
8D/	.	.	.	.	.
8E/	4b-\	4g\	-gi-	4b-\	-gi-
8F/J	.	.	.	.	.
4G\	1b-	1g	-ne	1b-	-ne
4E\	.	.	.	.	.
4B-\	.	.	.	.	.
4G\	.	.	.	.	.
=11	=11	=11	=11	=11	=11
!LO:TX:t=P:problem=poprawione nuty	!	!	!	!	!
!LO:TX:a:t=e	!	!	!	!	!
4E\	4gg\	4b-\	ex	4gg\	ex
!LO:TX:a:t=e	!	!	!	!	!
4E\	4b-\	4g\	.	4b-\	Ma-
4E\	2b-\	2g\	Ma-	2b-\	-ri-
4E\	.	.	.	.	.
4E\	2b-\	2g\	-rja	2b-\	-a
4E\	.	.	.	.	.
=12	=12	=12	=12	=12	=12
8F\L	4b-\	4g\	Vir-	4b-\	Vir-
8G\	.	.	.	.	.
8A\	4a\	4f\	-gi-	4a\	-gi-
8B-\J	.	.	.	.	.
4c\	1a	1f	-ne	1a	-ne
4A\	.	.	.	.	.
4F\	.	.	.	.	.
4C\	.	.	.	.	.
=13	=13	=13	=13	=13	=13
4F\	4a\	4f/	et	4a\	et
4C\	4g\	4e/	.	4g\	.
4E\	4cc\	4a/	ho-	4cc\	ho-
4C\	4b-\	4g/	.	4b-\	.
4G\	2b-\	2g/	-mo	2b-\	-mo
!LO:TX:t=P:problem=następny takt skreślony ze zbędną repetycją	!	!	!	!	!
4C/	.	.	.	.	.
!LO:LB:g=original	!LO:LB:g=original	!LO:LB:g=original	!	!	!
=14	=14	=14	=14	=14	=14
4F\	4a\	4f/	et	4a\	et
4C/	4g\	4e/	.	4g\	.
4E\	4cc\	4a/	ho-	4cc\	ho-
4C/	4b-\	4g/	.	4b-\	.
4G\	2b-\	2g/	-mo	2b-\	-mo
4C/	.	.	.	.	.
!	!	!	!	!LO:LB:g=original	!
=15	=15	=15	=15	=15	=15
2F\	4a\	4f/	ho-	4a\	ho-
.	4cc\	4a/	-mo	4cc\	mo
2E\	2b-\	2g/	fac-	2b-\	fac-
2C/	2g\	2e/	-tus	2g\	-tus
=16	=16	=16	=16	=16	=16
1.F;	1c; 1f 1a	1.f	eſt.	1.a;	eſt
.	2a\	.	.	.	.
==	==	==	==	==	==
*-	*-	*-	*-	*-	*-
!!!system-decoration: [(s1,s2)]{(s3,s4)}
!!!ENC: Berenika Jozajtis
!!!END: 2020-12-07
!!!ENC: Urszula Świątek
!!!END: 2022-03-28
